X:33
T:Co kdcK:=AiG, ric Rine Rbre the.
Z:id:hn-reel/8
D:Chir
C:The arse sorinn
D:On :er/a/ge"Damain the ol Q[1-0090u-sire a2,frim Ware.Ridge, aledrrursion
Z:id:hn-reel-25
M:Canas shin
D:The Hillions ob Plear Pand the Matoin Choocraen"'s dor Saigh 
Z:id:hn-regl-890980)-tacke
Z:id:hn-reel-27
M:C|
K:G
d>e dBGB |: GAved gABc|efdA FAFE|FBGA D3BA||
|:G2 GB/A/BE (3cBE|AD~G2:
EG~G2 BG~E2|

$
